public/new/vuesaxboldarrowup2.svg

<svg fill="none" height="47" viewBox="0 0 47 47" width="47" xmlns="http://www.w3.org/2000/svg" xmlns:xlink="http://www.w3.org/1999/xlink"><linearGradient id="a" gradientUnits="userSpaceOnUse" x1="23.4906" x2="23.4906" y1="43.0835" y2="3.91683"><stop offset="0" stop-color="#c44141"/><stop offset="1" stop-color="#7a3636"/></linearGradient><path d="m31.7057 43.0835h-16.4108c-7.12832 0-11.37791-4.2496-11.37791-11.3779v-16.3913c0-7.14789 4.24959-11.39747 11.37791-11.39747h16.3913c7.1283 0 11.3779 4.24958 11.3779 11.37787v16.4109c.0196 7.1283-4.23 11.3779-11.3584 11.3779zm1.2338-17.2725c-.5679-.5679-1.5079-.5679-2.0758 0l-5.8946 5.8946v-19.9554c0-.803-.6659-1.4688-1.4688-1.4688s-1.4687.6658-1.4687 1.4688v19.9554l-5.8946-5.8946c-.5679-.5679-1.5079-.5679-2.0758 0-.2938.2937-.4309.6658-.4309 1.0379s.1567.7638.4309 1.0379l8.4012 8.4013c.2742.2741.6463.4308 1.0379.4308.3917 0 .7638-.1567 1.0379-.4308l8.4013-8.4013c.5679-.5679.5679-1.4883 0-2.0758z" fill="url(#a)"/></svg>

<svg width="47" height="47" viewBox="0 0 47 47" fill="none" xmlns="http://www.w3.org/2000/svg">
<path d="M31.7057 43.0835H15.2949C8.16658 43.0835 3.91699 38.8339 3.91699 31.7056V15.3143C3.91699 8.16641 8.16658 3.91683 15.2949 3.91683H31.6862C38.8145 3.91683 43.0641 8.16641 43.0641 15.2947V31.7056C43.0837 38.8339 38.8341 43.0835 31.7057 43.0835ZM32.9395 25.811C32.3716 25.2431 31.4316 25.2431 30.8637 25.811L24.9691 31.7056V11.7502C24.9691 10.9472 24.3032 10.2814 23.5003 10.2814C22.6974 10.2814 22.0316 10.9472 22.0316 11.7502V31.7056L16.137 25.811C15.5691 25.2431 14.6291 25.2431 14.0612 25.811C13.7674 26.1047 13.6303 26.4768 13.6303 26.8489C13.6303 27.221 13.787 27.6127 14.0612 27.8868L22.4624 36.2881C22.7366 36.5622 23.1087 36.7189 23.5003 36.7189C23.892 36.7189 24.2641 36.5622 24.5382 36.2881L32.9395 27.8868C33.5074 27.3189 33.5074 26.3985 32.9395 25.811Z" fill="url(#paint0_linear_28_730)"/>
<defs>
<linearGradient id="paint0_linear_28_730" x1="23.4906" y1="43.0835" x2="23.4906" y2="3.91683" gradientUnits="userSpaceOnUse">
<stop stop-color="#C44141"/>
<stop offset="1" stop-color="#7A3636"/>
</linearGradient>
</defs>
</svg>
